**kern	**silbe
*ICvox	*
*A:	*
*M12/8	*
*clefC3	*
r;	.
=1	=1
4.r	.
4.e	I
8dq	_
4.e	cried
8dq	_
4e	a
16c#	tear
16e	_
=2	=2
4.c#	_
4.r	.
4.r	.
8c#	be-
8B	-cause
16c#	of
16c#	y-
=3	=3
4.d	-you
4.r	.
4.r	.
8f#	I
8f#	cried
8f#	a
=4	=4
8f#	tear
[4d	_
4d]	_
8r	.
4.r	.
8B	be-
8c#	-cause
8d	we're
=5	=5
16e	through
8f#	_
[8.e	_
4e]	_
8r	.
4.r	.
8e	I
8e	cried
8e	a
=6	=6
[4.a	tear
4a]	_
8r	.
8r	.
16f#	what
[8.f#	else
16f#]	_
16e	_
8f#	_
8eq	_
8f#	could
=7	=7
8e	I
[4d	do
4.d]	_
4.r	.
8B	but
8A	cry
8A	and
=8	=8
8eq	_
8f#	sigh
[4e	_
4.e]	_
4.r	.
8B	for
8.c#	love
16B	of
=9	=9
16c#Q	_
16BQ	_
2.A	_
4.r	.
8eq	_
8f#	I
8r	.
8e	felt
=10	=10
8c#	a
[4c#	tear
8c#]	_
4r	.
4.r	.
8B#q	_
4c#	fall
8B	in
=11	=11
16.c#	my
[32%9d	heart
8.d]	_
16r	.
8r	.
4.r	.
8f#	You
8.f#	fooled
[16f#	me
=12	=12
8f#]	_
[4d	so
4.d]	_
4.r	.
8B	I
16c#	was-
8.d	-n't
=13	=13
16e	smart
16f#	_
[4e	_
4.e]	_
4.r	.
8e	I
8e	can't
8e	be-
=14	=14
2.a	-lieve
4.r	.
8f#	that
8.f#	we
16e	_
=15	=15
16f#	_
8e	must
[8.d	part
4.d]	_
4.r	.
16g#Q	_
16f#Q	_
16.e	Come
8eq	_
16.f#	_
16.a	_
8eq	_
16.f#	back
=16	=16
16.a	to
[32%9e	stay
4.e]	_
4.r	.
8B	let's
8c#	make
8B	a
=17	=17
8c#	new
32c#	start
32B	_
[8.A	_
4.A]	_
2.r	.
=18	=18
1.r	.
=19	=19
1.r	.
=20	=20
1.r	.
=21	=21
1.r	.
=22	=22
1.r	.
=23	=23
1.r	.
=24	=24
1.r	.
=25	=25
4.r	.
4.r	.
4r	.
16r	.
16e	I
8f#	_
8e	cried
8c#	a
=26	=26
8e	tear
[4c#	_
4.c#]	_
4.r	.
8c#	be-
8B	-cause
16c#	of
16c#	y-
=27	=27
2.d	-you
4r	.
16r	.
16E	I
8f#	_
8f#	cried
8f#	a
=28	=28
8f#	tear
[4d	_
4d]	_
8r	.
4.r	.
8B	be-
8c#	-cause
8d	we're
=29	=29
16e	through
8f#	_
[8.e	_
4e]	_
8r	.
4.r	.
8e	Please
8e	make
8e	my
=30	=30
2.a	dreams
4r	.
[8f#	of
16f#]	_
16e	_
8f#	y-
8eq	_
16.f#	-you
[32e	come
=31	=31
16e]	_
[16d	true
4d_	_
4.d]	_
16.r	.
16.r	.
16.a	Don't
16.e	_
8a	_
8a	make
8a	me
=32	=32
8eq	_
8f#	cry
[4e	_
4.e]	_
4.r	.
8B	a
8c#	tear
8B	for
=33	=33
16c#Q	_
16BQ	_
2.A	_
4.r	.
8eq	_
8.f#	Don't
16.e	make
16.e	me
=34	=34
8e	cry
[4B	_
4.B]	_
4.r	.
8d	a
8c#	tear
8B	for
=35	=35
16c#Q	_
16BQ	_
4A	_
8r	.
4.r	.
2.r	.
r;	.
r;	.
*-	*-
!!!ENC: Nathaniel Condit-Schultz